svg/fluentui-system-icons/ic_fluent_document_prohibited_24_filled.svg

<svg width="24" height="24" viewBox="0 0 24 24" fill="none" xmlns="http://www.w3.org/2000/svg">
<path d="M12 2V8C12 9.10457 12.8954 10 14 10H20V20C20 21.1046 19.1046 22 18 22H11.1904C12.3112 20.8321 13 19.2465 13 17.5C13 13.9101 10.0899 11 6.5 11C5.6141 11 4.76959 11.1772 4 11.4982V4C4 2.89543 4.89543 2 6 2H12ZM13.5 2.5V8C13.5 8.27614 13.7239 8.5 14 8.5H19.5L13.5 2.5ZM12 17.5C12 20.5376 9.53757 23 6.5 23C3.46243 23 1 20.5376 1 17.5C1 14.4624 3.46243 12 6.5 12C9.53757 12 12 14.4624 12 17.5ZM2.5 17.5C2.5 18.3335 2.75495 19.1075 3.19112 19.7482L8.74822 14.1911C8.10751 13.755 7.33353 13.5 6.5 13.5C4.29086 13.5 2.5 15.2909 2.5 17.5ZM6.5 21.5C8.70914 21.5 10.5 19.7091 10.5 17.5C10.5 16.6665 10.245 15.8925 9.80888 15.2518L4.25178 20.8089C4.89249 21.245 5.66647 21.5 6.5 21.5Z" fill="#212121"/>
</svg>

<svg xmlns="http://www.w3.org/2000/svg" width="24" height="24"><path d="M12 2v6a2 2 0 0 0 2 2h6v10a2 2 0 0 1-2 2h-6.81A6.5 6.5 0 0 0 4 11.498V4a2 2 0 0 1 2-2h6Zm1.5.5V8a.5.5 0 0 0 .5.5h5.5l-6-6Zm-1.5 15a5.5 5.5 0 1 1-11 0 5.5 5.5 0 0 1 11 0Zm-9.5 0c0 .834.255 1.608.691 2.248l5.557-5.557A4 4 0 0 0 2.5 17.5Zm4 4a4 4 0 0 0 3.309-6.248l-5.557 5.557A3.98 3.98 0 0 0 6.5 21.5Z"/></svg>
